X:1
T:Sonny's Mazurka
R:Mazurka
O:Ireland
M:3/4
K:D
FG |\
A2 AG FA | d2 dA BA | GF GB AG | FG EF DF |\
A2 AG FA | d2 dA BA | GF Gg fe | d4 :|
|: de |\
f2 fa gf | e2 eg fe | dc df ed | cd Bc Ad |\
f2 fa gf | e2 eg fe | dc df ec | d4 :|
